X:1
T:Valladolid, 87.87 D
T:Valladolid, 87.87 D
T:George Frederick Root, 1879
T:Public Domain Courtesy of the Cyber Hymnal™
C:George Frederick Root, 1879
Z:Public Domain
Z:Courtesy of the Cyber Hymnal™
%%score ( 1 2 ) ( 3 4 )
L:1/8
Q:1/4=110
M:4/4
K:Bb
V:1 treble 
V:2 treble 
V:3 bass 
V:4 bass 
V:1
 [B,D]>[CE] | [DF]2 [DB]2 [DA]2 [DB]2 | [Ec]2 [EG]4 [Ec]>[EB] | [EA]2 [EG]2 [EA]3 [EG] | %4
 [DF]6 [B,D]>[CE] | [DF]2 [DB]2 [DA]2 [DB]2 | ([Ec]2 [FG]2) !fermata![Ee]2 [Fd]>[Ec] | %7
 [DB]2 [EA]2 [EG]2 [EA]2 | [DB]6 [Dd]>[Dd] | [Ed]2 ([Ec]2 E2) c>c | [Dc]2 ([DB]2 D2) B>A | %11
 [EA]2 [EG]2 A3 z G | F6 [B,D]>[CE] | [DF]2 [DB]2 [DA]2 [DB]2 | %14
 ([Ec]2 [FG]2) !fermata![Ee]2 [Fd]>[Ec] | [EB]2 [EA]2 [EG]2 [EA]2 | [DB]6 |] %17
V:2
 x2 | x8 | x8 | x8 | x8 | x8 | x8 | x8 | x8 | x6 E2 | x6 D2 | x4 (E2 E2) x | (D2 D2 D2) x2 | x8 | %14
 x8 | x8 | x6 |] %17
V:3
 [B,,B,]>[B,,B,] | [B,,B,]2 [B,,F,]2 [B,,F,]2 [B,,F,]2 | [E,G,]2 [E,C]4 [E,C]>[E,C] | %3
 [F,C]2 [F,C]2 [F,C]3 [F,A,] | [B,,B,]6 [B,,B,]>[B,,B,] | [B,,B,]2 [B,,F,]2 [B,,F,]2 [B,,F,]2 | %6
 G,4 !fermata![C,G,]2 [D,B,]>[E,G,] | F,2 [F,C]2 [F,C]2 [F,C]2 | [B,,B,]6 [B,,B,]>[B,,B,] | %9
 [F,A,]2 ([F,A,]2 [F,A,]2) [B,,B,]2 | [B,,B,]2 ([B,,B,]2 [B,,B,]2) [B,,B,]2 | %11
 [F,C]2 [F,C]2 ([F,C]2 [F,A,]2) x | ([B,,B,]2 [B,,B,]2 [B,,B,]2) [B,,B,]>[B,,B,] | %13
 [B,,B,]2 [B,,F,]2 [B,,F,]2 [B,,F,]2 | G,4 !fermata![C,G,]2 [D,B,]>[E,G,] | %15
 F,2 [F,C]2 [F,C]2 [F,C]2 | [B,,B,]6 |] %17
V:4
 x2 | x8 | x8 | x8 | x8 | x8 | (E,2 D,2) x4 | F,2 x6 | x8 | x8 | x8 | x9 | x8 | x8 | (E,2 D,2) x4 | %15
 F,2 x6 | x6 |] %17

